icons/line/cake.svg

<svg width="24" height="24" viewBox="0 0 24 24" fill="none" xmlns="http://www.w3.org/2000/svg">
<path fill-rule="evenodd" clip-rule="evenodd" d="M11 3C11 2.44772 11.4477 2 12 2H12.01C12.5623 2 13.01 2.44772 13.01 3C13.01 3.55228 12.5623 4 12.01 4H12C11.4477 4 11 3.55228 11 3ZM7 5C7.55228 5 8 5.44772 8 6V8H11V6C11 5.44772 11.4477 5 12 5C12.5523 5 13 5.44772 13 6V8H16V6C16 5.44772 16.4477 5 17 5C17.5523 5 18 5.44772 18 6V8.10002C20.2822 8.56329 22 10.581 22 13V14V19C22 20.6569 20.6569 22 19 22H5C3.34315 22 2 20.6569 2 19V14V13C2 10.581 3.71776 8.56329 6 8.10002V6C6 5.44772 6.44772 5 7 5ZM4 16.5288V19C4 19.5523 4.44772 20 5 20H19C19.5523 20 20 19.5523 20 19V16.5288C19.4558 16.8227 18.792 17 18 17C16.6326 17 15.6472 16.4715 15 15.7266C14.3528 16.4715 13.3674 17 12 17C10.6326 17 9.64721 16.4715 9 15.7266C8.35279 16.4715 7.36739 17 6 17C5.20803 17 4.5442 16.8227 4 16.5288ZM20 13C20 13.34 19.8898 13.8722 19.5885 14.2907C19.3239 14.6582 18.8741 15 18 15C17.1259 15 16.6761 14.6582 16.4115 14.2907C16.1102 13.8722 16 13.34 16 13C16 12.4477 15.5523 12 15 12C14.4477 12 14 12.4477 14 13C14 13.34 13.8898 13.8722 13.5885 14.2907C13.3239 14.6582 12.8741 15 12 15C11.1259 15 10.6761 14.6582 10.4115 14.2907C10.1102 13.8722 10 13.34 10 13C10 12.4477 9.55228 12 9 12C8.44772 12 8 12.4477 8 13C8 13.34 7.88978 13.8722 7.58847 14.2907C7.32386 14.6582 6.87408 15 6 15C5.12592 15 4.67614 14.6582 4.41153 14.2907C4.11022 13.8722 4 13.34 4 13C4 11.3431 5.34315 10 7 10H12H17C18.6569 10 20 11.3431 20 13ZM7 2C6.44772 2 6 2.44772 6 3C6 3.55228 6.44772 4 7 4H7.01C7.56228 4 8.01 3.55228 8.01 3C8.01 2.44772 7.56228 2 7.01 2H7ZM16 3C16 2.44772 16.4477 2 17 2H17.01C17.5623 2 18.01 2.44772 18.01 3C18.01 3.55228 17.5623 4 17.01 4H17C16.4477 4 16 3.55228 16 3Z" fill="currentColor"/>
</svg>

<svg fill="none" xmlns="http://www.w3.org/2000/svg" viewBox="0 0 24 24"><path fill-rule="evenodd" clip-rule="evenodd" d="M11 3a1 1 0 011-1h.01a1 1 0 110 2H12a1 1 0 01-1-1zM7 5a1 1 0 011 1v2h3V6a1 1 0 112 0v2h3V6a1 1 0 112 0v2.1c2.282.463 4 2.481 4 4.9v6a3 3 0 01-3 3H5a3 3 0 01-3-3v-6a5.002 5.002 0 014-4.9V6a1 1 0 011-1zM4 16.529V19a1 1 0 001 1h14a1 1 0 001-1v-2.471c-.544.294-1.208.471-2 .471-1.367 0-2.353-.529-3-1.273-.647.744-1.633 1.273-3 1.273s-2.353-.529-3-1.273C8.353 16.47 7.367 17 6 17c-.792 0-1.456-.177-2-.471zM20 13c0 .34-.11.872-.412 1.29-.264.368-.714.71-1.588.71-.874 0-1.324-.342-1.588-.71A2.355 2.355 0 0116 13a1 1 0 10-2 0c0 .34-.11.872-.412 1.29-.264.368-.714.71-1.588.71-.874 0-1.324-.342-1.588-.71A2.355 2.355 0 0110 13a1 1 0 10-2 0c0 .34-.11.872-.412 1.29-.264.368-.714.71-1.588.71-.874 0-1.324-.342-1.588-.71A2.355 2.355 0 014 13a3 3 0 013-3h10a3 3 0 013 3zM7 2a1 1 0 000 2h.01a1 1 0 000-2H7zm9 1a1 1 0 011-1h.01a1 1 0 110 2H17a1 1 0 01-1-1z" fill="currentColor"/></svg>
